icons/mobile/24/svg/avatar-circle-fill-24.svg

<svg width="24" height="24" viewBox="0 0 24 24" fill="none" xmlns="http://www.w3.org/2000/svg">
<path fill-rule="evenodd" clip-rule="evenodd" d="M12 2C17.523 2 22 6.477 22 12C22 17.523 17.523 22 12 22C6.477 22 2 17.523 2 12C2 6.477 6.477 2 12 2ZM12.001 13.25C10.7301 13.25 9.56237 13.3453 8.52148 13.4873C7.72774 13.5965 7.07006 14.0755 6.70215 14.7344C6.48566 15.1221 6.53707 15.6209 6.80664 15.9736C8.00426 17.5411 9.87983 18.5599 12 18.5605C14.1208 18.5604 15.9964 17.5404 17.1943 15.9736C17.4642 15.6208 17.5156 15.1223 17.2988 14.7344C16.9298 14.0755 16.2734 13.5963 15.4795 13.4873C14.4387 13.3444 13.2716 13.25 12.001 13.25ZM12 6.5C10.4032 6.50026 9.15505 7.9982 9.58594 9.66602C9.80293 10.5079 10.4922 11.197 11.334 11.4141C13.0019 11.8448 14.5 10.5969 14.5 9C14.5 7.61911 13.3808 6.50018 12 6.5Z" fill="black"/>
</svg>

<!-- This Source Code Form is subject to the terms of the Mozilla Public
   - License, v. 2.0. If a copy of the MPL was not distributed with this
   - file, You can obtain one at http://mozilla.org/MPL/2.0/. -->
<svg xmlns="http://www.w3.org/2000/svg" width="24" height="24" fill="none" viewBox="0 0 24 24">
    <path fill="#000" fill-rule="evenodd" d="M12 2c5.523 0 10 4.477 10 10s-4.477 10-10 10S2 17.523 2 12 6.477 2 12 2m.001 11.25c-1.27 0-2.439.095-3.48.237a2.47 2.47 0 0 0-1.819 1.247 1.15 1.15 0 0 0 .105 1.24C8.004 17.54 9.88 18.56 12 18.56s3.996-1.02 5.194-2.587c.27-.353.322-.852.105-1.24a2.47 2.47 0 0 0-1.82-1.247 26 26 0 0 0-3.478-.237M12 6.5a2.506 2.506 0 0 0-2.414 3.166 2.47 2.47 0 0 0 1.748 1.748A2.505 2.505 0 0 0 14.5 9 2.5 2.5 0 0 0 12 6.5" clip-rule="evenodd" />
</svg>
